iconos/bibtex.svg

<?xml version="1.0" encoding="UTF-8" standalone="no"?>
<svg
   version="1.1"
   width="28"
   height="28"
   color-interpolation="linearRGB"
   id="svg88"
   sodipodi:docname="bibtex.svg"
   inkscape:version="1.2.2 (b0a8486541, 2022-12-01)"
   xmlns:inkscape="http://www.inkscape.org/namespaces/inkscape"
   xmlns:sodipodi="http://sodipodi.sourceforge.net/DTD/sodipodi-0.dtd"
   xmlns="http://www.w3.org/2000/svg"
   xmlns:svg="http://www.w3.org/2000/svg">
  <defs
     id="defs92" />
  <sodipodi:namedview
     id="namedview90"
     pagecolor="#ffffff"
     bordercolor="#000000"
     borderopacity="0.25"
     inkscape:showpageshadow="2"
     inkscape:pageopacity="0.0"
     inkscape:pagecheckerboard="0"
     inkscape:deskcolor="#d1d1d1"
     showgrid="false"
     inkscape:zoom="13.5625"
     inkscape:cx="26.986175"
     inkscape:cy="26.101382"
     inkscape:window-width="1920"
     inkscape:window-height="1052"
     inkscape:window-x="0"
     inkscape:window-y="0"
     inkscape:window-maximized="1"
     inkscape:current-layer="svg88" />
  <g
     id="g86"
     transform="matrix(0.42483474,0,0,0.42483474,0.64379603,0.30040184)">
    <path
       style="fill:#010101;fill-opacity:0.4117"
       d="m 42,64 h 6 L 58,54 c 0,0 6,-2 6,-6 0,-4 -8,-6 -8,-6 z"
       id="path2" />
    <path
       style="fill:none;stroke:#000000;stroke-width:4"
       d="M 20,13 2,24 C 12,38 18,50 18,50 L 34,39 Z"
       id="path4" />
    <linearGradient
       id="gradient0"
       gradientUnits="userSpaceOnUse"
       x1="16.59"
       y1="8.4300003"
       x2="38.830002"
       y2="18.5">
      <stop
         offset="0"
         stop-color="#fcffdc"
         id="stop6" />
      <stop
         offset="0.5"
         stop-color="#f8f0bc"
         id="stop8" />
      <stop
         offset="1"
         stop-color="#f4dc8a"
         id="stop10" />
    </linearGradient>
    <path
       style="fill:url(#gradient0)"
       d="M 20,13 2,24 C 12,38 18,50 18,50 L 34,39 Z"
       id="path13" />
    <linearGradient
       id="gradient1"
       gradientUnits="userSpaceOnUse"
       x1="-11.48"
       y1="3.47"
       x2="8.0299997"
       y2="-6.6799998">
      <stop
         offset="0"
         stop-color="#000000"
         id="stop15" />
      <stop
         offset="1"
         stop-color="#a9a06e"
         id="stop17" />
    </linearGradient>
    <path
       style="fill:none;stroke:url(#gradient1);stroke-width:1"
       d="M 22.75,24.25 11,32 m 6,-7.75 -7.75,5.12 M 19,19 7,27 m 15.87,4.12 -8.75,6.13 M 23,27.37 12.87,34.5 M 27,36 17.75,43.12 M 27,32.5 16,40"
       id="path20" />
    <path
       style="fill:none;stroke:#000000;stroke-width:4"
       d="M 30,16 V 36 H 50 V 18 L 37,12 Z"
       id="path22" />
    <linearGradient
       id="gradient2"
       gradientUnits="userSpaceOnUse"
       x1="89.739998"
       y1="-57.07"
       x2="132.61"
       y2="-8.0500002">
      <stop
         offset="0"
         stop-color="#ffdb97"
         id="stop24" />
      <stop
         offset="1"
         stop-color="#fcaf29"
         id="stop26" />
    </linearGradient>
    <path
       style="fill:url(#gradient2)"
       d="M 30,16 V 36 H 44 V 22 Z"
       id="path29" />
    <linearGradient
       id="gradient3"
       gradientUnits="userSpaceOnUse"
       x1="-27.969999"
       y1="-38.98"
       x2="-8.8299999"
       y2="-56.950001">
      <stop
         offset="0"
         stop-color="#fff7ea"
         id="stop31" />
      <stop
         offset="0.9962"
         stop-color="#fdd17b"
         id="stop33" />
    </linearGradient>
    <path
       style="fill:url(#gradient3)"
       d="M 30,16 44,22 50,18 38,16 41.99,13.99 37,12 Z"
       id="path36" />
    <linearGradient
       id="gradient4"
       gradientUnits="userSpaceOnUse"
       x1="86.230003"
       y1="-52.610001"
       x2="107.84"
       y2="-45.970001">
      <stop
         offset="0"
         stop-color="#c85805"
         id="stop38" />
      <stop
         offset="1"
         stop-color="#f06306"
         id="stop40" />
    </linearGradient>
    <path
       style="fill:url(#gradient4)"
       d="m 44,36 h 6 V 18 l -6,4 z"
       id="path43" />
    <linearGradient
       id="gradient5"
       gradientUnits="userSpaceOnUse"
       x1="41.919998"
       y1="-64"
       x2="52.07"
       y2="-64">
      <stop
         offset="0"
         stop-color="#c85804"
         id="stop45" />
      <stop
         offset="1"
         stop-color="#dc952f"
         id="stop47" />
    </linearGradient>
    <path
       style="fill:url(#gradient5)"
       d="m 38,16 12,2 -8,-4 z"
       id="path50" />
    <path
       style="fill:none;stroke:#000000;stroke-width:4"
       d="m 40,2 c -3,0 -6,3 -6,6 0,3 3,6 6,6 3,0 6,-3 6,-6 0,-3 -3,-6 -6,-6 z"
       id="path52" />
    <radialGradient
       id="gradient6"
       gradientUnits="userSpaceOnUse"
       cx="0"
       cy="0"
       r="64"
       gradientTransform="matrix(0.1736,0,0,0.1696,38.625,6.375)">
      <stop
         offset="0"
         stop-color="#f2f2f2"
         id="stop54" />
      <stop
         offset="1"
         stop-color="#bca184"
         id="stop56" />
      <stop
         offset="0.6742"
         stop-color="#7d7a7a"
         id="stop58" />
    </radialGradient>
    <path
       style="fill:url(#gradient6)"
       d="m 40,2 c -3,0 -6,3 -6,6 0,3 3,6 6,6 3,0 6,-3 6,-6 0,-3 -3,-6 -6,-6 z"
       id="path61" />
    <path
       style="fill:none;stroke:#000000;stroke-width:4"
       d="M 26,36 V 54 L 42,62 54,51 V 34 L 38,28 Z"
       id="path63" />
    <linearGradient
       id="gradient7"
       gradientUnits="userSpaceOnUse"
       x1="36.59"
       y1="4.21"
       x2="62.34"
       y2="20.33">
      <stop
         offset="0"
         stop-color="#c6d7f5"
         id="stop65" />
      <stop
         offset="1"
         stop-color="#6b94dd"
         id="stop67" />
    </linearGradient>
    <path
       style="fill:url(#gradient7)"
       d="m 26,36 v 18 l 16,8 V 43 Z"
       id="path70" />
    <linearGradient
       id="gradient8"
       gradientUnits="userSpaceOnUse"
       x1="52.16"
       y1="21.82"
       x2="66.839996"
       y2="30.110001">
      <stop
         offset="0"
         stop-color="#003cb0"
         id="stop72" />
      <stop
         offset="1"
         stop-color="#2c62d0"
         id="stop74" />
    </linearGradient>
    <path
       style="fill:url(#gradient8)"
       d="M 42,43 V 62 L 54,51 V 34 Z"
       id="path77" />
    <linearGradient
       id="gradient9"
       gradientUnits="userSpaceOnUse"
       x1="36.939999"
       y1="0.059999999"
       x2="76.059998"
       y2="16.450001">
      <stop
         offset="0"
         stop-color="#e3edff"
         id="stop79" />
      <stop
         offset="1"
         stop-color="#9ec2ff"
         id="stop81" />
    </linearGradient>
    <path
       style="fill:url(#gradient9)"
       d="M 26,36 42,43 54,34 38,28 Z"
       id="path84" />
  </g>
</svg>

<?xml version="1.0" encoding="UTF-8" standalone="yes"?>
<svg version="1.1" width="64" height="64" color-interpolation="linearRGB"
     xmlns:svg="http://www.w3.org/2000/svg" xmlns="http://www.w3.org/2000/svg">
 <g>
  <path style="fill:#010101; fill-opacity:0.4117"
        d="M42 64H48L58 54C58 54 64 52 64 48C64 44 56 42 56 42L42 64z"
  />
  <path style="fill:none; stroke:#000000; stroke-width:4"
        d="M20 13L2 24C12 38 18 50 18 50L34 39L20 13z"
  />
  <linearGradient id="gradient0" gradientUnits="userSpaceOnUse" x1="16.59" y1="8.43" x2="38.83" y2="18.5">
   <stop offset="0" stop-color="#fcffdc"/>
   <stop offset="0.5" stop-color="#f8f0bc"/>
   <stop offset="1" stop-color="#f4dc8a"/>
  </linearGradient>
  <path style="fill:url(#gradient0)"
        d="M20 13L2 24C12 38 18 50 18 50L34 39L20 13z"
  />
  <linearGradient id="gradient1" gradientUnits="userSpaceOnUse" x1="-11.48" y1="3.47" x2="8.03" y2="-6.68">
   <stop offset="0" stop-color="#000000"/>
   <stop offset="1" stop-color="#a9a06e"/>
  </linearGradient>
  <path style="fill:none; stroke:url(#gradient1); stroke-width:1"
        d="M22.75 24.25L11 32
           M17 24.25L9.25 29.37
           M19 19L7 27
           M22.87 31.12L14.12 37.25
           M23 27.37L12.87 34.5
           M27 36L17.75 43.12
           M27 32.5L16 40"
  />
  <path style="fill:none; stroke:#000000; stroke-width:4"
        d="M30 16V36H50V18L37 12L30 16z"
  />
  <linearGradient id="gradient2" gradientUnits="userSpaceOnUse" x1="89.74" y1="-57.07" x2="132.61" y2="-8.05">
   <stop offset="0" stop-color="#ffdb97"/>
   <stop offset="1" stop-color="#fcaf29"/>
  </linearGradient>
  <path style="fill:url(#gradient2)"
        d="M30 16V36H44V22L30 16z"
  />
  <linearGradient id="gradient3" gradientUnits="userSpaceOnUse" x1="-27.97" y1="-38.98" x2="-8.83" y2="-56.95">
   <stop offset="0" stop-color="#fff7ea"/>
   <stop offset="0.9962" stop-color="#fdd17b"/>
  </linearGradient>
  <path style="fill:url(#gradient3)"
        d="M30 16L44 22L50 18L38 16L41.99 13.99L37 12L30 16z"
  />
  <linearGradient id="gradient4" gradientUnits="userSpaceOnUse" x1="86.23" y1="-52.61" x2="107.84" y2="-45.97">
   <stop offset="0" stop-color="#c85805"/>
   <stop offset="1" stop-color="#f06306"/>
  </linearGradient>
  <path style="fill:url(#gradient4)"
        d="M44 36H50V18L44 22V36z"
  />
  <linearGradient id="gradient5" gradientUnits="userSpaceOnUse" x1="41.92" y1="-64" x2="52.07" y2="-64">
   <stop offset="0" stop-color="#c85804"/>
   <stop offset="1" stop-color="#dc952f"/>
  </linearGradient>
  <path style="fill:url(#gradient5)"
        d="M38 16L50 18L42 14L38 16z"
  />
  <path style="fill:none; stroke:#000000; stroke-width:4"
        d="M40 2C37 2 34 5 34 8C34 11 37 14 40 14C43 14 46 11 46 8C46 5 43 2 40 2z"
  />
  <radialGradient id="gradient6" gradientUnits="userSpaceOnUse" cx="0" cy="0" r="64" gradientTransform="matrix(0.1736,0,0,0.1696,38.625,6.375)">
   <stop offset="0" stop-color="#f2f2f2"/>
   <stop offset="1" stop-color="#bca184"/>
   <stop offset="0.6742" stop-color="#7d7a7a"/>
  </radialGradient>
  <path style="fill:url(#gradient6)"
        d="M40 2C37 2 34 5 34 8C34 11 37 14 40 14C43 14 46 11 46 8C46 5 43 2 40 2z"
  />
  <path style="fill:none; stroke:#000000; stroke-width:4"
        d="M26 36V54L42 62L54 51V34L38 28L26 36z"
  />
  <linearGradient id="gradient7" gradientUnits="userSpaceOnUse" x1="36.59" y1="4.21" x2="62.34" y2="20.33">
   <stop offset="0" stop-color="#c6d7f5"/>
   <stop offset="1" stop-color="#6b94dd"/>
  </linearGradient>
  <path style="fill:url(#gradient7)"
        d="M26 36V54L42 62V43L26 36z"
  />
  <linearGradient id="gradient8" gradientUnits="userSpaceOnUse" x1="52.16" y1="21.82" x2="66.84" y2="30.11">
   <stop offset="0" stop-color="#003cb0"/>
   <stop offset="1" stop-color="#2c62d0"/>
  </linearGradient>
  <path style="fill:url(#gradient8)"
        d="M42 43V62L54 51V34L42 43z"
  />
  <linearGradient id="gradient9" gradientUnits="userSpaceOnUse" x1="36.94" y1="0.06" x2="76.06" y2="16.45">
   <stop offset="0" stop-color="#e3edff"/>
   <stop offset="1" stop-color="#9ec2ff"/>
  </linearGradient>
  <path style="fill:url(#gradient9)"
        d="M26 36L42 43L54 34L38 28L26 36z"
  />
 </g>
</svg>
